web/public/images/simplified-email.svg

<svg fill="none" height="137" viewBox="0 0 339 137" width="339" xmlns="http://www.w3.org/2000/svg"><path d="m4 23h334v110c0 1.657-1.343 3-3 3h-334v-110c0-1.6569 1.34315-3 3-3z" stroke="#a86338" stroke-width="2"/><g fill="#a86338"><path d="m44.134 13v-10.122h2.037v4.06h4.431v-4.06h2.044v10.122h-2.044v-4.347h-4.431v4.347zm13.2444 0v-8.302h-3.059v-1.82h8.099v1.82h-2.989v8.302zm6.716 0v-10.122h2.968l2.317 7.217 2.338-7.217h2.961v10.122h-2.065v-7.742l-2.436 7.742h-1.603l-2.422-7.707v7.707zm13.1316 0v-10.122h2.058v8.393h4.396v1.729z"/><path d="m136.325 13v-8.302h-3.059v-1.82h8.099v1.82h-2.989v8.302zm8.716.14c-.719 0-1.351-.1493-1.897-.448-.542-.3033-.964-.7303-1.267-1.281-.304-.5507-.455-1.1993-.455-1.946 0-.72333.137-1.37433.413-1.953.28-.58333.681-1.043 1.204-1.379.522-.34067 1.155-.511 1.897-.511.737 0 1.355.15633 1.855.469.499.308.877.73967 1.134 1.295.256.55067.385 1.18767.385 1.911v.553h-4.865c0 .3687.06.6907.182.966.121.2707.296.4807.525.63.233.1447.513.217.84.217.35 0 .655-.0747.917-.224.261-.1493.445-.3943.553-.735h1.841c-.084.5133-.29.952-.616 1.316-.327.364-.724.6417-1.19.833-.467.1913-.952.287-1.456.287zm-1.596-4.508h2.954c0-.28933-.056-.55533-.168-.798-.108-.24267-.271-.434-.49-.574-.215-.14-.486-.21-.812-.21-.313 0-.581.077-.805.231-.22.14933-.39.34533-.511.588-.117.24267-.173.497-.168.763zm5.426 4.368 2.779-3.773-2.541-3.465h2.142l1.505 2.03 1.498-2.03h2.135l-2.562 3.465 2.786 3.773h-2.142l-1.729-2.359-1.729 2.359zm12.112.077c-.639 0-1.134-.0817-1.484-.245-.345-.1633-.585-.392-.721-.686-.13-.294-.196-.6347-.196-1.022v-3.941h-1.176v-1.421h1.239l.518-2.184h1.456v2.177h1.61v1.428h-1.61l.014 3.857c0 .1773.021.3103.063.399.047.084.117.14.21.168.098.0233.222.035.371.035h.973v1.26c-.098.042-.245.0817-.441.119s-.471.056-.826.056z"/><path d="m224.134 13v-10.122h4.27c.807 0 1.468.12833 1.981.385s.891.61367 1.134 1.071c.243.45267.364.97533.364 1.568 0 .532-.084.98233-.252 1.351-.163.364-.38.66733-.651.91-.266.24267-.558.441-.875.595l1.883 4.242h-2.121l-1.645-3.899h-2.051v3.899zm2.037-5.474h1.869c.546 0 .978-.147 1.295-.441.322-.294.483-.672.483-1.134 0-.46667-.154-.83533-.462-1.106s-.698-.406-1.169-.406h-2.016zm9.744 5.614c-.457 0-.872-.0863-1.246-.259-.368-.1727-.66-.4223-.875-.749-.214-.3313-.322-.7327-.322-1.204 0-.7933.297-1.39533.889-1.806.593-.41533 1.529-.63 2.807-.644l.91-.014v-.434c0-.33133-.098-.58567-.294-.763-.191-.182-.492-.27067-.903-.266-.294.00467-.576.07467-.847.21-.266.13533-.45.371-.553.707h-1.701c.028-.52267.18-.952.455-1.288.28-.34067.656-.59267 1.127-.756.472-.168 1.011-.252 1.617-.252.738 0 1.33.09333 1.778.28.448.182.773.44567.973.791.206.34067.308.74667.308 1.218v5.089h-1.708l-.168-1.246c-.247.5227-.557.8843-.931 1.085-.368.2007-.807.301-1.316.301zm.693-1.344c.182 0 .36-.0327.532-.098.178-.07.336-.161.476-.273.14-.1167.25-.2473.329-.392.084-.1447.129-.294.133-.448v-1.071l-.735.014c-.34.00467-.658.04667-.952.126-.294.07467-.532.19833-.714.371-.177.1727-.266.406-.266.7 0 .336.115.5997.343.791.234.1867.518.28.854.28zm6.788 1.204-2.345-7.238h1.806l1.386 4.487h.049l1.33-4.487h1.463l1.344 4.487h.056l1.344-4.487h1.848l-2.38 7.238h-1.631l-1.344-4.382-1.351 4.382zm13.235 0v-10.122h2.037v4.06h4.431v-4.06h2.044v10.122h-2.044v-4.347h-4.431v4.347zm13.244 0v-8.302h-3.059v-1.82h8.099v1.82h-2.989v8.302zm6.716 0v-10.122h2.968l2.317 7.217 2.338-7.217h2.961v10.122h-2.065v-7.742l-2.436 7.742h-1.603l-2.422-7.707v7.707zm13.132 0v-10.122h2.058v8.393h4.396v1.729z"/></g><path d="m27 50h310v21h-310z" fill="#eee"/><path d="m27 84h310v21h-310z" fill="#eee"/><path d="m27 118h310v17h-310z" fill="#eee"/></svg>

<svg width="339" height="137" viewBox="0 0 339 137" fill="none" xmlns="http://www.w3.org/2000/svg">
<path d="M4 23H338V133C338 134.657 336.657 136 335 136H1V26C1 24.3431 2.34315 23 4 23Z" stroke="#A86338" stroke-width="2"/>
<path d="M44.134 13V2.878H46.171V6.938H50.602V2.878H52.646V13H50.602V8.653H46.171V13H44.134ZM57.3784 13V4.698H54.3194V2.878H62.4184V4.698H59.4294V13H57.3784ZM64.0944 13V2.878H67.0624L69.3794 10.095L71.7174 2.878H74.6784V13H72.6134V5.258L70.1774 13H68.5744L66.1524 5.293V13H64.0944ZM77.226 13V2.878H79.284V11.271H83.68V13H77.226Z" fill="#A86338"/>
<path d="M136.325 13V4.698H133.266V2.878H141.365V4.698H138.376V13H136.325ZM145.041 13.14C144.322 13.14 143.69 12.9907 143.144 12.692C142.602 12.3887 142.18 11.9617 141.877 11.411C141.573 10.8603 141.422 10.2117 141.422 9.465C141.422 8.74167 141.559 8.09067 141.835 7.512C142.115 6.92867 142.516 6.469 143.039 6.133C143.561 5.79233 144.194 5.622 144.936 5.622C145.673 5.622 146.291 5.77833 146.791 6.091C147.29 6.399 147.668 6.83067 147.925 7.386C148.181 7.93667 148.31 8.57367 148.31 9.297V9.85H143.445C143.445 10.2187 143.505 10.5407 143.627 10.816C143.748 11.0867 143.923 11.2967 144.152 11.446C144.385 11.5907 144.665 11.663 144.992 11.663C145.342 11.663 145.647 11.5883 145.909 11.439C146.17 11.2897 146.354 11.0447 146.462 10.704H148.303C148.219 11.2173 148.013 11.656 147.687 12.02C147.36 12.384 146.963 12.6617 146.497 12.853C146.03 13.0443 145.545 13.14 145.041 13.14ZM143.445 8.632H146.399C146.399 8.34267 146.343 8.07667 146.231 7.834C146.123 7.59133 145.96 7.4 145.741 7.26C145.526 7.12 145.255 7.05 144.929 7.05C144.616 7.05 144.348 7.127 144.124 7.281C143.904 7.43033 143.734 7.62633 143.613 7.869C143.496 8.11167 143.44 8.366 143.445 8.632ZM148.871 13L151.65 9.227L149.109 5.762H151.251L152.756 7.792L154.254 5.762H156.389L153.827 9.227L156.613 13H154.471L152.742 10.641L151.013 13H148.871ZM160.983 13.077C160.344 13.077 159.849 12.9953 159.499 12.832C159.154 12.6687 158.914 12.44 158.778 12.146C158.648 11.852 158.582 11.5113 158.582 11.124V7.183H157.406V5.762H158.645L159.163 3.578H160.619V5.755H162.229V7.183H160.619L160.633 11.04C160.633 11.2173 160.654 11.3503 160.696 11.439C160.743 11.523 160.813 11.579 160.906 11.607C161.004 11.6303 161.128 11.642 161.277 11.642H162.25V12.902C162.152 12.944 162.005 12.9837 161.809 13.021C161.613 13.0583 161.338 13.077 160.983 13.077Z" fill="#A86338"/>
<path d="M224.134 13V2.878H228.404C229.211 2.878 229.872 3.00633 230.385 3.263C230.898 3.51967 231.276 3.87667 231.519 4.334C231.762 4.78667 231.883 5.30933 231.883 5.902C231.883 6.434 231.799 6.88433 231.631 7.253C231.468 7.617 231.251 7.92033 230.98 8.163C230.714 8.40567 230.422 8.604 230.105 8.758L231.988 13H229.867L228.222 9.101H226.171V13H224.134ZM226.171 7.526H228.04C228.586 7.526 229.018 7.379 229.335 7.085C229.657 6.791 229.818 6.413 229.818 5.951C229.818 5.48433 229.664 5.11567 229.356 4.845C229.048 4.57433 228.658 4.439 228.187 4.439H226.171V7.526ZM235.915 13.14C235.458 13.14 235.043 13.0537 234.669 12.881C234.301 12.7083 234.009 12.4587 233.794 12.132C233.58 11.8007 233.472 11.3993 233.472 10.928C233.472 10.1347 233.769 9.53267 234.361 9.122C234.954 8.70667 235.89 8.492 237.168 8.478L238.078 8.464V8.03C238.078 7.69867 237.98 7.44433 237.784 7.267C237.593 7.085 237.292 6.99633 236.881 7.001C236.587 7.00567 236.305 7.07567 236.034 7.211C235.768 7.34633 235.584 7.582 235.481 7.918H233.78C233.808 7.39533 233.96 6.966 234.235 6.63C234.515 6.28933 234.891 6.03733 235.362 5.874C235.834 5.706 236.373 5.622 236.979 5.622C237.717 5.622 238.309 5.71533 238.757 5.902C239.205 6.084 239.53 6.34767 239.73 6.693C239.936 7.03367 240.038 7.43967 240.038 7.911V13H238.33L238.162 11.754C237.915 12.2767 237.605 12.6383 237.231 12.839C236.863 13.0397 236.424 13.14 235.915 13.14ZM236.608 11.796C236.79 11.796 236.968 11.7633 237.14 11.698C237.318 11.628 237.476 11.537 237.616 11.425C237.756 11.3083 237.866 11.1777 237.945 11.033C238.029 10.8883 238.074 10.739 238.078 10.585V9.514L237.343 9.528C237.003 9.53267 236.685 9.57467 236.391 9.654C236.097 9.72867 235.859 9.85233 235.677 10.025C235.5 10.1977 235.411 10.431 235.411 10.725C235.411 11.061 235.526 11.3247 235.754 11.516C235.988 11.7027 236.272 11.796 236.608 11.796ZM243.396 13L241.051 5.762H242.857L244.243 10.249H244.292L245.622 5.762H247.085L248.429 10.249H248.485L249.829 5.762H251.677L249.297 13H247.666L246.322 8.618L244.971 13H243.396ZM256.631 13V2.878H258.668V6.938H263.099V2.878H265.143V13H263.099V8.653H258.668V13H256.631ZM269.875 13V4.698H266.816V2.878H274.915V4.698H271.926V13H269.875ZM276.591 13V2.878H279.559L281.876 10.095L284.214 2.878H287.175V13H285.11V5.258L282.674 13H281.071L278.649 5.293V13H276.591ZM289.723 13V2.878H291.781V11.271H296.177V13H289.723Z" fill="#A86338"/>
<rect x="27" y="50" width="310" height="21" fill="#eee"/>
<rect x="27" y="84" width="310" height="21" fill="#eee"/>
<rect x="27" y="118" width="310" height="17" fill="#eee"/>
</svg>
